!!!OTL: 186. Sher
!!!Genre:	Sher
!!!Mode:	Altered Dorian
!!!Listening/dance:	dance
!!!One_Mode:	no
**kern
*thru
*I"P1
*clefG2
*k[b-]
*B-:
!LO:TX:a:i:t=Bb-major
8r
8dL
8e-X
8enJ
=19
4f
16a-XLL
16gJ
[8fJ
=20
8fL]
8fJ
16a-XLL
16gJ
8fJ
=21
[2b-
=22
4b-]
4r
=23
4dd
16ee-XLL
16ddJ
[8ccnJ
=24
8ccL]
8ddJ
16ee-XLL
16ddJ
8ccJ
=25
(4.dd
8cc#X)
=26
16ddLL
16cc#XJ
8b-J
16b-LL
16aJ
8gJ
!!!End-Modulation
*-
